X: 7317
T: Cleveland Park
R: jig
M: 6/8
K: Aminor
|:EAB cBA|FAB cBA|GAB cBA|BcB BAG|
EAB cBA|FAB cBA|BcB GAB|BcB A3:|
Ace aec|def e3|FAc EAc|cBA ^GAB|
Ace aec|def ecA|FAc EAc|BA^G A3|
Ace aec|def e3|FAc EAc|cBA ^GAB|
EAB cBA|FAB cBA|BcB GAB|BcB A3||

